assets/icons/24px/outline/star-24px.svg

<svg width="24" height="24" viewBox="0 0 24 24" fill="none" xmlns="http://www.w3.org/2000/svg">
<path d="M11.0484 4.94694C11.4402 3.73372 11.636 3.12711 12 3.12711C12.364 3.12711 12.5598 3.73372 12.9516 4.94694L14.2763 9.04923C14.3842 9.38335 14.4382 9.55042 14.5697 9.64618C14.7013 9.74193 14.8768 9.74193 15.2279 9.74193L18.911 9.74193C20.1831 9.74193 20.8192 9.74193 20.9312 10.0879C21.0432 10.4339 20.5278 10.8067 19.4971 11.5522L16.339 13.8363C16.0549 14.0418 15.9128 14.1446 15.8623 14.299C15.8118 14.4535 15.8657 14.6203 15.9735 14.954L17.3106 19.0924C17.698 20.2916 17.8917 20.8911 17.5986 21.1043C17.3055 21.3175 16.7947 20.9485 15.7733 20.2104L12.5857 17.9071C12.3031 17.7029 12.1617 17.6007 12 17.6007C11.8383 17.6007 11.6969 17.7029 11.4143 17.9071L8.22667 20.2104C7.20525 20.9485 6.69455 21.3175 6.40141 21.1043C6.10827 20.8911 6.30199 20.2916 6.68942 19.0924L8.02651 14.954C8.13432 14.6203 8.18822 14.4535 8.13771 14.299C8.08719 14.1446 7.94512 14.0418 7.66099 13.8363L4.50295 11.5522C3.47217 10.8067 2.95679 10.4339 3.0688 10.0879C3.18081 9.74193 3.81687 9.74193 5.08899 9.74193L8.77207 9.74193C9.12319 9.74193 9.29875 9.74193 9.4303 9.64618C9.56184 9.55042 9.61579 9.38335 9.72369 9.04923L11.0484 4.94694Z" stroke="white" stroke-width="2" stroke-linecap="round" stroke-linejoin="round"/>
</svg>

<svg width="24" height="24" fill="none" xmlns="http://www.w3.org/2000/svg"><path d="M11.048 4.947c.392-1.213.588-1.82.952-1.82s.56.607.952 1.82l1.324 4.102c.108.334.162.501.294.597.131.096.307.096.658.096h3.683c1.272 0 1.908 0 2.02.346.112.346-.403.719-1.434 1.464l-3.158 2.284c-.284.206-.426.309-.477.463-.05.155.004.321.111.655l1.338 4.138c.387 1.2.58 1.8.288 2.012-.294.213-.804-.155-1.826-.894l-3.187-2.303c-.283-.204-.424-.306-.586-.306-.162 0-.303.102-.586.306L8.227 20.21c-1.022.738-1.532 1.107-1.826.894-.293-.213-.099-.812.288-2.012l1.338-4.138c.107-.334.161-.5.11-.655-.05-.154-.192-.257-.476-.463l-3.158-2.284c-1.03-.745-1.546-1.118-1.434-1.464.112-.346.748-.346 2.02-.346h3.683c.351 0 .527 0 .658-.096.132-.096.186-.263.294-.597l1.324-4.102z" stroke="#fff" stroke-width="2" stroke-linecap="round" stroke-linejoin="round"/></svg>
